X: 28477
T: Muñeira De Paula
R: jig
M: 6/8
K: Dmajor
FGA FGA|DEF DEF|EFG EFG|CDE AFD|
FGA FGA|DEF DEF|EFG EFG|CDE D3:|
dcB cBA|BdB AGF|GFE BGE|GFE FED|
dcB cBA|BdB AGF|BAG AGF|GFE D3:|
AFD FAF|AFD AFD|BGE GBG|BGE BGE|
GEC EGE|GEC GEC|BGA FGE|GEF DEF|
AFD FAF|AFD AFD|BGE GBG|BGE BGE|
GEC EAF|GEF DEC|D3 DFE|1 D3- DFG:|2 D6||

